images/minigrid-logo.svg

<svg width="14" height="16" viewBox="0 0 14 16" xmlns="http://www.w3.org/2000/svg"><title>Imported Layers</title><path d="M.455 5.817l-.01.015 6 4 .01-.015c.16.107.34.183.545.183.205 0 .385-.076.544-.183l.01.016 6-4-.01-.016c.268-.18.456-.47.456-.817 0-.346-.188-.637-.456-.816l.01-.015-6-4-.01.014C7.384.078 7.204 0 7 0c-.206 0-.386.078-.545.184L6.445.17l-6 4 .01.014C.187 4.364 0 4.654 0 5c0 .347.187.638.455.817zM7 2.202L11.197 5 7 7.8 2.803 5 7 2.202zM13 10c-.206 0-.386.078-.545.184l-.01-.015L7 13.8l-5.446-3.63-.01.014C1.384 10.078 1.204 10 1 10c-.553 0-1 .448-1 1 0 .347.187.638.455.817l-.01.016 6 4 .01-.016c.16.106.34.184.545.184.205 0 .385-.077.544-.183l.01.016 6-4-.01-.016c.268-.18.456-.47.456-.817 0-.552-.448-1-1-1zm0-3c-.206 0-.386.078-.545.184l-.01-.015L7 10.8 1.554 7.17l-.01.014C1.384 7.078 1.204 7 1 7 .447 7 0 7.45 0 8c0 .347.187.638.455.817l-.01.016 6 4 .01-.016c.16.107.34.184.545.184.205 0 .385-.076.544-.183l.01.015 6-4-.01-.015c.268-.18.456-.47.456-.816 0-.552-.448-1-1-1z" fill="#536DFE" fill-rule="evenodd"/></svg>

<?xml version="1.0" encoding="UTF-8" standalone="no"?>
<svg width="14px" height="16px" viewBox="0 0 14 16" version="1.1" xmlns="http://www.w3.org/2000/svg" xmlns:xlink="http://www.w3.org/1999/xlink" xmlns:sketch="http://www.bohemiancoding.com/sketch/ns">
    <!-- Generator: Sketch 3.3.3 (12072) - http://www.bohemiancoding.com/sketch -->
    <title>Imported Layers</title>
    <desc>Created with Sketch.</desc>
    <defs></defs>
    <g id="Page-1" stroke="none" stroke-width="1" fill="none" fill-rule="evenodd" sketch:type="MSPage">
        <path d="M0.455,5.817 L0.445,5.832 L6.445,9.833 L6.455,9.817 C6.614,9.924 6.794,10 7,10 C7.205,10 7.385,9.924 7.544,9.817 L7.554,9.833 L13.554,5.832 L13.544,5.817 C13.812,5.638 14,5.347 14,5 C14,4.654 13.812,4.363 13.544,4.184 L13.554,4.169 L7.554,0.169 L7.544,0.184 C7.385,0.078 7.205,0 7,0 C6.794,0 6.614,0.078 6.455,0.184 L6.445,0.169 L0.445,4.169 L0.455,4.184 C0.187,4.363 0,4.654 0,5 C0,5.347 0.187,5.638 0.455,5.817 L0.455,5.817 Z M7,2.202 L11.197,5 L7,7.799 L2.803,5 L7,2.202 L7,2.202 Z M13,10 C12.794,10 12.614,10.078 12.455,10.184 L12.445,10.169 L7,13.799 L1.554,10.169 L1.544,10.184 C1.385,10.078 1.205,10 1,10 C0.447,10 0,10.448 0,11 C0,11.347 0.187,11.638 0.455,11.817 L0.445,11.833 L6.445,15.833 L6.455,15.817 C6.614,15.923 6.794,16.001 7,16.001 C7.205,16.001 7.385,15.923 7.544,15.817 L7.554,15.833 L13.554,11.833 L13.544,11.817 C13.812,11.638 14,11.347 14,11 C14,10.448 13.552,10 13,10 L13,10 Z M13,7.001 C12.794,7.001 12.614,7.078 12.455,7.184 L12.445,7.169 L7,10.799 L1.554,7.169 L1.544,7.184 C1.385,7.078 1.205,7.001 1,7.001 C0.447,7.001 0,7.448 0,8.001 C0,8.347 0.187,8.638 0.455,8.817 L0.445,8.833 L6.445,12.832 L6.455,12.817 C6.614,12.924 6.794,13.001 7,13.001 C7.205,13.001 7.385,12.924 7.544,12.817 L7.554,12.832 L13.554,8.833 L13.544,8.817 C13.812,8.638 14,8.347 14,8.001 C14,7.448 13.552,7.001 13,7.001 L13,7.001 Z" id="Imported-Layers" fill="#536DFE" sketch:type="MSShapeGroup"></path>
    </g>
</svg>
